X:1
T:Lady Elizabeth Cole's Reel
T:Lady Elizabeth Cole's Reel
T:Robert MacIntosh
C:Robert MacIntosh
L:1/8
M:6/8
K:Gmin
V:1 treble 
V:1
 d |"Gm" g2 d"Cm" e2 c |"Gm" d2 B"D7" cBA |"Gm" B2 G"Cm" A2 G |"D7" ^FAd [Dd]2 d | %5
"Gm" gdg"Cm" ece |"Gm" dBd"D7" cBA |"Gm" Bcd"D7" cBA |"Gm" G3 G2 :: B/c/ |"Gm" dBG dBG | %11
"Cm" ede"C7" cdB |"F" cAF"F7" cAF |"Bb" dcd"Bb7" cdB |"Eb" BGE BGE |"C" cBc ABG |"D7" ^FGA DdA | %17
"Gm" BGG G2 :| %18

